tools/download-figma-icons/icons/solid/emob-cable-spiral.svg

<svg width="24" height="24" viewBox="0 0 24 24" fill="none" xmlns="http://www.w3.org/2000/svg">
<path fill-rule="evenodd" clip-rule="evenodd" d="M6.16437 7.80945C6.36462 7.56195 6.69912 7.46595 6.99837 7.57095C7.29837 7.6767 7.50012 7.9602 7.50012 8.2782C7.50012 8.41395 7.47237 11.6172 5.03037 14.0585C4.88412 14.2055 4.69212 14.2782 4.50012 14.2782C4.30812 14.2782 4.11612 14.2055 3.96987 14.0585C3.67662 13.766 3.67662 13.2912 3.96987 12.998C4.77912 12.1887 5.26587 11.2617 5.55912 10.4442C4.34562 11.2805 3.08262 11.5475 1.96587 11.1545C0.771122 10.736 0.00012207 9.6237 0.00012207 8.3217C0.00012207 6.16395 2.16987 4.9377 3.19362 4.4787L3.03912 4.01595C2.92287 3.6702 3.07362 3.29145 3.39387 3.1182C3.48912 3.0672 5.75112 1.8597 8.89812 1.1427C12.0436 0.424954 15.6961 0.906454 15.8506 0.927454C16.0636 0.956704 16.2541 1.0752 16.3734 1.25295C16.4926 1.43145 16.5301 1.6527 16.4754 1.8612L15.7254 4.7187C15.6564 4.9842 15.4479 5.1897 15.1816 5.2557C14.6664 5.38545 12.0519 6.0282 11.2501 6.0282C10.4326 6.0282 10.0469 5.78471 9.73623 5.58857L9.73287 5.58645C9.49287 5.43345 9.19437 5.31045 8.53287 5.28345C8.34762 5.27595 8.16162 5.31495 7.98987 5.38695L4.79112 6.7197C4.69812 6.7587 4.59912 6.7782 4.50012 6.7782C4.39437 6.7782 4.28937 6.75645 4.19112 6.71145C4.00062 6.6252 3.85512 6.4632 3.78912 6.26595L3.67137 5.91345C2.88687 6.28995 1.50012 7.1232 1.50012 8.3217C1.50012 8.98845 1.86837 9.5307 2.46237 9.73995C3.51537 10.1082 4.90137 9.38895 6.16437 7.80945ZM9.00222 9.02998H8.99997C8.58747 9.02998 8.25222 9.36373 8.24997 9.77623C8.24997 9.80323 8.21022 12.5077 6.21972 14.4982C5.92647 14.7915 5.92647 15.2655 6.21972 15.5587C6.36597 15.705 6.55797 15.7785 6.74997 15.7785C6.94197 15.7785 7.13397 15.705 7.28022 15.5587C9.72222 13.1167 9.74997 9.91423 9.74997 9.77848C9.74997 9.36523 9.41547 9.03073 9.00222 9.02998ZM11.2522 10.53H11.25C10.8375 10.53 10.5022 10.8637 10.5 11.2762C10.5 11.3032 10.4602 14.0077 8.46971 15.9982C8.17646 16.2915 8.17646 16.7655 8.46971 17.0587C8.61596 17.205 8.80796 17.2785 8.99996 17.2785C9.19196 17.2785 9.38396 17.205 9.53021 17.0587C11.9722 14.6167 12 11.4142 12 11.2785C12 10.8652 11.6655 10.5307 11.2522 10.53ZM13.5 12.03H13.5022C13.9155 12.0307 14.25 12.3652 14.25 12.7785C14.25 12.9142 14.2222 16.1167 11.7802 18.5587C11.634 18.705 11.442 18.7785 11.25 18.7785C11.058 18.7785 10.866 18.705 10.7197 18.5587C10.4265 18.2655 10.4265 17.7915 10.7197 17.4982C12.7102 15.5077 12.75 12.8032 12.75 12.7762C12.7522 12.3637 13.0875 12.03 13.5 12.03ZM15.7522 13.53H15.75C15.3375 13.53 15.0022 13.8637 15 14.2762C15 14.3032 14.9602 17.0077 12.9697 18.9982C12.6765 19.2915 12.6765 19.7655 12.9697 20.0587C13.116 20.205 13.308 20.2785 13.5 20.2785C13.692 20.2785 13.884 20.205 14.0302 20.0587C16.4722 17.6167 16.5 14.4142 16.5 14.2785C16.5 13.8652 16.1655 13.5307 15.7522 13.53ZM18 15.03H18.0022C18.4155 15.0307 18.75 15.3652 18.75 15.7785C18.75 15.9142 18.7222 19.1167 16.2802 21.5587C16.134 21.705 15.942 21.7785 15.75 21.7785C15.558 21.7785 15.366 21.705 15.2197 21.5587C14.9265 21.2655 14.9265 20.7915 15.2197 20.4982C17.2102 18.5077 17.25 15.8032 17.25 15.7762C17.2522 15.3637 17.5875 15.03 18 15.03ZM23.2501 21.0285C22.4903 21.0285 21.9391 20.8147 21.5641 20.3737C21.0368 19.755 20.9266 18.7545 20.9393 18.0457C20.9978 17.6017 21.0001 17.3167 21.0001 17.2785C21.0001 16.8877 20.7008 16.563 20.3116 16.5307C19.9358 16.4992 19.5751 16.77 19.5106 17.1555C19.5046 17.1892 19.4596 17.4675 19.4453 17.883C19.3163 18.7987 18.8888 20.5792 17.4698 21.9982C17.1766 22.2915 17.1766 22.7655 17.4698 23.0587C17.6161 23.205 17.8081 23.2785 18.0001 23.2785C18.1921 23.2785 18.3841 23.205 18.5303 23.0587C19.2263 22.3627 19.7266 21.6052 20.0851 20.874C20.1811 21.036 20.2913 21.1927 20.4166 21.3405C21.0841 22.1287 22.0381 22.5285 23.2501 22.5285C23.6648 22.5285 24.0001 22.1932 24.0001 21.7785C24.0001 21.3637 23.6648 21.0285 23.2501 21.0285Z" fill="black"/>
</svg>

<svg width="24" height="24" viewBox="0 0 24 24" fill="none" xmlns="http://www.w3.org/2000/svg"><path fill-rule="evenodd" clip-rule="evenodd" d="M6.164 7.81a.751.751 0 0 1 1.336.469c0 .135-.028 3.338-2.47 5.78a.745.745 0 0 1-.53.22.75.75 0 0 1-.53-1.28c.81-.81 1.296-1.737 1.59-2.555-1.214.836-2.477 1.103-3.594.71C.77 10.737 0 9.625 0 8.323 0 6.165 2.17 4.939 3.194 4.48l-.155-.463a.75.75 0 0 1 .355-.898c.095-.05 2.357-1.258 5.504-1.975 3.146-.718 6.798-.237 6.953-.216a.752.752 0 0 1 .625.934l-.75 2.858a.747.747 0 0 1-.544.537c-.516.13-3.13.772-3.932.772-.817 0-1.203-.243-1.514-.44l-.003-.002c-.24-.153-.539-.276-1.2-.303a1.278 1.278 0 0 0-.543.104L4.79 6.72a.752.752 0 0 1-1.002-.454l-.118-.353c-.784.377-2.17 1.21-2.17 2.409 0 .666.367 1.209.961 1.418 1.053.368 2.44-.351 3.702-1.93Zm2.838 1.22H9a.75.75 0 0 0-.75.746c0 .027-.04 2.732-2.03 4.722a.75.75 0 1 0 1.06 1.06c2.442-2.441 2.47-5.644 2.47-5.78a.749.749 0 0 0-.748-.748Zm2.25 1.5h-.002a.75.75 0 0 0-.75.746c0 .027-.04 2.732-2.03 4.722a.75.75 0 1 0 1.06 1.06c2.442-2.441 2.47-5.644 2.47-5.78a.748.748 0 0 0-.748-.748Zm2.248 1.5h.002c.413 0 .748.335.748.748 0 .136-.028 3.339-2.47 5.78a.748.748 0 0 1-1.06 0 .75.75 0 0 1 0-1.06c1.99-1.99 2.03-4.695 2.03-4.722a.75.75 0 0 1 .75-.746Zm2.252 1.5h-.002a.75.75 0 0 0-.75.746c0 .027-.04 2.732-2.03 4.722a.75.75 0 1 0 1.06 1.06c2.442-2.441 2.47-5.644 2.47-5.78a.748.748 0 0 0-.748-.748ZM18 15.03h.002c.414 0 .748.335.748.748 0 .136-.028 3.339-2.47 5.78a.748.748 0 0 1-1.06 0 .75.75 0 0 1 0-1.06c1.99-1.99 2.03-4.695 2.03-4.722a.75.75 0 0 1 .75-.746Zm5.25 5.999c-.76 0-1.31-.214-1.686-.655-.527-.619-.637-1.62-.625-2.328a6.33 6.33 0 0 0 .061-.767.75.75 0 0 0-.688-.748.759.759 0 0 0-.801.625 5.83 5.83 0 0 0-.066.727c-.129.916-.556 2.696-1.975 4.115a.75.75 0 1 0 1.06 1.06 8.152 8.152 0 0 0 1.555-2.184 3.3 3.3 0 0 0 .332.466c.667.789 1.621 1.189 2.833 1.189a.75.75 0 1 0 0-1.5Z" fill="currentColor"/></svg>
